X:1
T:Johnny Rillus
M:3/4
L:1/4
K:C
 G| e d d| B d G| e d B| d2 G| e2 d| B d d| c/2c/2 B A| G2 G| e d c|\
 B d G/2G/2| e d B| d2 G/2G/2| e d d| B- d d/2d/2| c B A| G2||
